assets/features/channel/europe-and-america/amazon.svg

<svg width="80" height="80" viewBox="0 0 80 80" fill="none" xmlns="http://www.w3.org/2000/svg">
<rect width="80" height="80" rx="8" fill="#010001"/>
<path d="M47.7008 47.8712C43.9954 50.6112 38.6064 52.0711 33.958 52.0711C27.4462 52.0711 21.6071 49.6681 17.1612 45.6707C16.8242 45.3564 17.1159 44.9301 17.5384 45.1766C22.3163 47.9618 28.2258 49.6229 34.334 49.6229C38.7403 49.6015 43.0989 48.7088 47.1589 46.9961C47.7875 46.7446 48.3043 47.4223 47.6983 47.8763L47.7008 47.8712Z" fill="#FF9803"/>
<path d="M44.9158 45.9628C46.1065 45.8056 48.7784 45.4913 49.2499 46.0974C49.7264 46.7261 48.7105 49.2196 48.2616 50.3425C48.127 50.6794 48.4187 50.8178 48.7331 50.5663C50.7323 48.9052 51.249 45.402 50.8442 44.9078C50.4393 44.4136 46.964 43.9597 44.8265 45.4686C44.4896 45.6937 44.5562 46.0081 44.9158 45.9628Z" fill="#FF9803"/>
<path fill-rule="evenodd" clip-rule="evenodd" d="M57.8496 32.8936C60.7917 32.8936 62.3866 35.4079 62.3867 38.6192C62.3867 41.7188 60.6334 44.1885 57.8496 44.1885C54.9755 44.1884 53.4043 41.6738 53.4043 38.5303C53.3817 35.3642 54.9755 32.8938 57.8496 32.8936ZM29.4395 32.8936C29.883 32.8848 30.3224 32.9816 30.7207 33.1768C31.119 33.3721 31.4648 33.6598 31.7295 34.0157C32.3582 34.8695 32.2236 36.1049 32.2236 37.2051V43.628C32.2188 43.7247 32.1776 43.8162 32.1074 43.8829C32.0372 43.9496 31.9435 43.9865 31.8467 43.9864H29.8926C29.7995 43.9804 29.7116 43.9409 29.6455 43.8751C29.5794 43.8091 29.5394 43.7212 29.5332 43.628V38.2383C29.5332 37.8108 29.5784 36.7302 29.4893 36.3301C29.3321 35.6562 28.9047 35.4493 28.3213 35.4493C28.0636 35.4565 27.8139 35.5399 27.6025 35.6876C27.3913 35.8352 27.2273 36.0409 27.1318 36.2803C26.9294 36.797 26.9521 37.6497 26.9521 38.2344V43.6241C26.9476 43.7211 26.9052 43.813 26.835 43.8799C26.7649 43.9466 26.6719 43.9835 26.5752 43.9835H24.5928C24.4998 43.9769 24.4125 43.9372 24.3467 43.8712C24.2808 43.805 24.2405 43.7172 24.2344 43.6241V38.2383C24.2344 37.1155 24.4145 35.4307 23.0215 35.4307C21.6071 35.4307 21.6523 37.0476 21.6523 38.2383V43.628C21.6382 43.7241 21.5893 43.8119 21.5146 43.8741C21.4399 43.9363 21.3442 43.9684 21.2471 43.9649H19.2725C19.1839 43.9559 19.1001 43.9184 19.0352 43.8575C18.9702 43.7966 18.9268 43.7158 18.9121 43.628V33.4766C18.917 33.3799 18.9591 33.2885 19.0293 33.2217C19.0995 33.1551 19.1932 33.1181 19.29 33.1182H21.1309C21.2219 33.1196 21.3096 33.1546 21.376 33.2169C21.4424 33.2792 21.483 33.3644 21.4902 33.4551V34.7794H21.5352C22.0067 33.4993 22.9276 32.8936 24.1396 32.8936C25.3754 32.8937 26.1611 33.4994 26.6992 34.7794C27.1707 33.4993 28.2714 32.8936 29.4395 32.8936ZM51.8545 33.0958C51.9516 33.0957 52.045 33.1333 52.1152 33.2003C52.1854 33.2672 52.2279 33.3582 52.2324 33.4551V34.6905C52.2322 34.8929 52.0523 35.1619 51.7383 35.6104L48.3691 40.4161C49.6265 40.3934 50.9524 40.5735 52.0752 41.2022C52.1746 41.2589 52.2574 41.3405 52.3164 41.4385C52.3754 41.5366 52.4087 41.6484 52.4121 41.7628V43.3135C52.4121 43.5374 52.1869 43.785 51.9404 43.6505C49.9426 42.5943 47.2696 42.4826 45.0693 43.6719C44.8443 43.7851 44.5977 43.5598 44.5977 43.336V41.8536C44.5772 41.5061 44.6646 41.1607 44.8486 40.8653L48.7568 35.2735H45.3623C45.2652 35.2736 45.1718 35.236 45.1016 35.169C45.0314 35.1021 44.989 35.011 44.9844 34.9141H44.9834V33.4551C44.9809 33.4075 44.9889 33.36 45.0059 33.3155C45.023 33.2708 45.0492 33.2293 45.083 33.1954C45.1167 33.1616 45.1577 33.1354 45.2021 33.1182C45.2466 33.1011 45.2942 33.0934 45.3418 33.0958H51.8545ZM57.8496 34.9815C56.3903 34.9818 56.3008 36.9799 56.3008 38.2159C56.3008 39.4519 56.2783 42.1004 57.8271 42.1007C59.3548 42.1007 59.4443 39.9628 59.4443 38.6651C59.4443 37.8114 59.3987 36.7792 59.1523 35.9708C58.9273 35.2515 58.4783 34.9815 57.8496 34.9815Z" fill="white"/>
<path fill-rule="evenodd" clip-rule="evenodd" d="M38.7358 32.7998C39.7014 32.7999 40.959 33.0516 41.7222 33.7871C42.6876 34.6862 42.6021 35.8986 42.6021 37.2012V40.2783C42.6021 41.1985 42.979 41.6024 43.3423 42.1191C43.4768 42.2989 43.4994 42.5238 43.3423 42.6357C42.916 42.9728 42.197 43.6015 41.7935 43.9385L41.7944 43.9424C41.7305 43.9981 41.6504 44.0322 41.5659 44.04C41.4813 44.0479 41.396 44.0294 41.3228 43.9863C40.6717 43.4483 40.5364 43.1787 40.1782 42.6621C39.1007 43.7623 38.3132 44.0996 36.9214 44.0996C35.2605 44.0996 33.9576 43.0657 33.9575 41.0225C33.9575 39.4054 34.8379 38.3275 36.0688 37.7881C37.1464 37.3166 38.65 37.2273 39.7954 37.0928V36.8418C39.7954 36.3704 39.8409 35.8092 39.5444 35.4043C39.293 35.0459 38.8475 34.8887 38.4438 34.8887C37.6794 34.8887 37.0063 35.2658 36.8491 36.0781C36.8038 36.2579 36.692 36.4375 36.5122 36.4375L34.604 36.2354C34.4469 36.1901 34.2673 36.0783 34.311 35.832C34.7612 33.4957 36.8498 32.7998 38.7358 32.7998ZM69.1704 32.8926C70.0505 32.8926 70.9219 33.2076 71.4839 34.084C71.9994 34.8925 71.9995 36.2617 71.9995 37.25V43.6504C71.9845 43.739 71.9386 43.8193 71.8696 43.877C71.8004 43.9346 71.7126 43.9661 71.6226 43.9648H69.6382C69.553 43.9567 69.4722 43.9216 69.4077 43.8652C69.3434 43.8089 69.2982 43.7337 69.2788 43.6504V37.2236C69.2525 36.2951 69.0713 35.3858 68.0444 35.3857C67.5731 35.3857 67.1241 35.6994 66.8989 36.1934C66.6299 36.822 66.5845 37.4297 66.5845 38.125V43.6055C66.572 43.7039 66.5238 43.7943 66.4497 43.8604C66.3756 43.9264 66.2804 43.9637 66.1812 43.9648H64.2046C64.1113 43.9586 64.0227 43.9187 63.9565 43.8525C63.8906 43.7865 63.8505 43.6986 63.8442 43.6055V33.4326C63.8565 33.3407 63.902 33.2561 63.9712 33.1943C64.0404 33.1326 64.1294 33.0976 64.2222 33.0957H66.0718C66.1551 33.0988 66.2355 33.1291 66.3003 33.1816C66.365 33.2342 66.411 33.3068 66.4312 33.3877V34.9365H66.4761C67.0368 33.5447 67.8014 32.8927 69.1704 32.8926ZM39.7935 38.6875C38.3614 38.6875 36.8521 39.0019 36.8521 40.6855C36.8521 41.5392 37.301 42.1228 38.064 42.123C38.6247 42.123 39.1197 41.7854 39.4341 41.2246C39.8159 40.5283 39.7935 39.8771 39.7935 39.1143V38.6875Z" fill="white"/>
<path fill-rule="evenodd" clip-rule="evenodd" d="M12.7793 32.7998C13.7437 32.7998 15.0025 33.0515 15.7656 33.7871C16.7311 34.6862 16.6455 35.8985 16.6455 37.2012V40.2783C16.6456 41.1985 17.0231 41.6024 17.3877 42.1191C17.5219 42.2988 17.5445 42.5239 17.3877 42.6357C16.9602 42.9727 16.2418 43.6015 15.8369 43.9385L15.8359 43.9424C15.772 43.9982 15.6919 44.0321 15.6074 44.04C15.5228 44.0479 15.4375 44.0294 15.3643 43.9863C14.713 43.4481 14.5781 43.1789 14.2197 42.6621C13.1411 43.7621 12.3555 44.0996 10.9639 44.0996C9.30168 44.0996 8.00004 43.0657 8 41.0225C8 39.4055 8.87986 38.3276 10.1094 37.7881C11.1882 37.3165 12.6925 37.2273 13.8379 37.0928V36.8418C13.8379 36.3703 13.8827 35.8092 13.5859 35.4043C13.3345 35.046 12.8911 34.8887 12.4863 34.8887C11.7231 34.8887 11.0488 35.2658 10.8916 36.0781C10.8476 36.2579 10.7345 36.4375 10.5547 36.4375L8.64648 36.2354C8.48939 36.1901 8.31072 36.0782 8.35449 35.832C8.80336 33.4957 10.892 32.7998 12.7793 32.7998ZM13.8604 38.6875C12.427 38.6875 10.918 39.0019 10.918 40.6855C10.918 41.5393 11.3674 42.123 12.1318 42.123C12.6925 42.123 13.1867 41.7828 13.501 41.2246C13.8829 40.5283 13.8604 39.8772 13.8604 39.1143V38.6875Z" fill="white"/>
</svg>

<svg xmlns="http://www.w3.org/2000/svg" width="80" height="80" fill="none" viewBox="0 0 80 80"><rect width="80" height="80" fill="#010001" rx="8"/><path fill="#ff9803" d="M47.7 47.871c-3.705 2.74-9.094 4.2-13.742 4.2-6.512 0-12.35-2.403-16.797-6.4-.337-.315-.045-.74.377-.494 4.778 2.785 10.688 4.446 16.796 4.446a33.4 33.4 0 0 0 12.825-2.627c.629-.251 1.145.426.54.88z"/><path fill="#ff9803" d="M44.916 45.963c1.19-.157 3.862-.472 4.334.134.476.63-.54 3.123-.988 4.246-.135.336.157.475.471.223 2-1.66 2.516-5.164 2.111-5.658s-3.88-.948-6.017.56c-.337.226-.27.54.089.495"/><path fill="#fff" fill-rule="evenodd" d="M57.85 32.894c2.942 0 4.537 2.514 4.537 5.725 0 3.1-1.754 5.57-4.537 5.57-2.875 0-4.446-2.515-4.446-5.659-.022-3.166 1.571-5.636 4.446-5.636m-28.41 0a2.79 2.79 0 0 1 2.29 1.122c.628.854.494 2.089.494 3.19v6.422a.377.377 0 0 1-.377.358h-1.954a.385.385 0 0 1-.36-.358v-5.39c0-.427.045-1.508-.044-1.908-.157-.674-.584-.88-1.168-.88a1.32 1.32 0 0 0-1.19.83c-.202.517-.179 1.37-.179 1.954v5.39a.38.38 0 0 1-.377.36h-1.982a.386.386 0 0 1-.359-.36v-5.386c0-1.123.18-2.807-1.213-2.807-1.414 0-1.369 1.617-1.369 2.807v5.39a.395.395 0 0 1-.405.337h-1.974a.41.41 0 0 1-.36-.337V33.477a.38.38 0 0 1 .377-.359h1.84a.367.367 0 0 1 .36.337v1.324h.045c.472-1.28 1.393-1.885 2.605-1.885 1.235 0 2.021.605 2.56 1.885.47-1.28 1.571-1.885 2.74-1.885m22.415.202a.377.377 0 0 1 .377.36v1.234c0 .203-.18.472-.494.92l-3.369 4.806c1.258-.023 2.583.158 3.706.786a.67.67 0 0 1 .337.56v1.551c0 .224-.225.472-.472.337-1.997-1.056-4.67-1.167-6.87.022-.226.113-.472-.112-.472-.336v-1.482c-.02-.348.067-.693.25-.989l3.909-5.592h-3.395a.377.377 0 0 1-.378-.359v-1.459a.34.34 0 0 1 .218-.337.34.34 0 0 1 .14-.022zm5.995 1.886c-1.46 0-1.55 1.998-1.55 3.234s-.022 3.884 1.527 3.885c1.528 0 1.617-2.138 1.617-3.436 0-.854-.045-1.886-.292-2.694-.225-.72-.674-.99-1.302-.99M38.736 32.8c.965 0 2.223.252 2.986.987.966.9.88 2.112.88 3.414v3.077c0 .92.377 1.324.74 1.841.135.18.157.405 0 .517-.426.337-1.145.965-1.548 1.302v.004a.4.4 0 0 1-.471.044c-.651-.538-.787-.807-1.145-1.324-1.077 1.1-1.865 1.438-3.257 1.438-1.66 0-2.963-1.034-2.963-3.078 0-1.617.88-2.694 2.11-3.234 1.078-.471 2.582-.56 3.727-.695v-.251c0-.472.046-1.033-.25-1.438-.252-.358-.698-.515-1.101-.515-.765 0-1.438.377-1.595 1.19-.045.179-.157.358-.337.358l-1.908-.202c-.157-.045-.337-.157-.293-.403.45-2.336 2.539-3.032 4.425-3.032m30.434.093c.88 0 1.752.315 2.314 1.191.515.808.516 2.178.516 3.166v6.4a.38.38 0 0 1-.377.315h-1.985a.41.41 0 0 1-.36-.315v-6.426c-.026-.929-.207-1.838-1.234-1.838-.47 0-.92.313-1.145.807-.27.629-.314 1.237-.314 1.932v5.48a.41.41 0 0 1-.404.36h-1.976a.39.39 0 0 1-.36-.36V33.433a.39.39 0 0 1 .377-.337h1.85a.39.39 0 0 1 .36.292v1.549h.044c.56-1.392 1.325-2.044 2.694-2.044m-29.376 5.794c-1.433 0-2.942.315-2.942 1.999 0 .853.449 1.437 1.212 1.437.56 0 1.056-.338 1.37-.898.382-.697.36-1.348.36-2.11zM12.78 32.8c.964 0 2.223.252 2.986.987.965.9.88 2.111.88 3.414v3.077c0 .92.377 1.324.742 1.841.134.18.156.405 0 .517-.428.337-1.146.965-1.551 1.302l-.001.004a.4.4 0 0 1-.472.044c-.651-.538-.786-.807-1.144-1.324-1.079 1.1-1.865 1.438-3.256 1.438C9.302 44.1 8 43.066 8 41.022c0-1.616.88-2.694 2.11-3.234 1.078-.471 2.583-.56 3.728-.695v-.251c0-.472.045-1.033-.252-1.438-.252-.358-.695-.515-1.1-.515-.763 0-1.437.377-1.594 1.19-.044.179-.157.358-.337.358l-1.909-.202c-.157-.045-.335-.157-.292-.403.45-2.336 2.538-3.032 4.425-3.032m1.08 5.888c-1.433 0-2.942.314-2.942 1.997 0 .854.45 1.438 1.214 1.438.56 0 1.055-.34 1.369-.898.382-.697.36-1.348.36-2.11z" clip-rule="evenodd"/></svg>
